X: 54
T: Miss Haggart's Strathspey
R: strathspey
Q: "Slow"
B: William Shepherd "1st Collection" 1793 p.5 #4
F: http://imslp.org/wiki/File:PMLP73094-Shepherd_Collections_HMT.pdf
C: William Shepherd (17??-1812)
Z: 2012 John Chambers <jc:trillian.mit.edu>
M: C
L: 1/16
K: D
((3ABc) |\
d3D D2F A3B A3F | e3E E2G2 B4 TB3g |\
f3d e3c d3B {B}A2.G.F | D2FG A2F2 A4 A2fe |\
d3D D2F2 A3B {B}A2.G.F |
e3E E3G B4 B3g |\
f3d e3c d3B {B}A3F | A,2CD E2C2 D4 D2g2 ||\
f3e defg a3f {f}e3d | {d}c3B ABcd e4 e2ag |
f3e defg a3f {f}e3d | A3c e3c d4 d2ag |\
f3e defg a3f {f}e3d | {d}c3B ABcd e4 e2fg |\
a3f g3e f2d2 .A2.F2 | (G2B2) .A2.F2 .D4 D2 |]
